X: 31208
T: Paddy Fahey's
R: hornpipe
M: 4/4
K: Gmajor
"G"G,B,DG BAG=F|"C"ECEG c3 c|"G"B/c/d gd B/c/d DG|"C"cBAG "Dm7"=FDCA,|
"G"G,B,DG BAG=F|"C"ECEG c3 c|"G"B/c/d gd B/c/d DF||1 "D"AGGF "G"G4:|2 "D7"AGGF "G"G2 A/B/c||
"G"dggf gdBG|"Am7"cAag "D"fgaf|"G"gdBg "F"=fdAG|"D"FDd^c d2 d=c|
"G"B/c/d BG "Am7"cBcA|"G"B/c/d "D"fa "G"gfgd|B/c/d gd B/c/d "D"DF|"D7"AGGF "G"G2 A/B/c|
"G"dggf gdBG|"Am7"cAag "D"fgaf|"G"gdBg "D"fdAG|FDd^c d2 d=c|
"G"BDGB "Am7"cBAc|"G"B/c/d "D"fa "G"gfgd|B/c/d gd B/c/d "D"DF|"D7"AGGF "G"G4||

